X: 12
T:Mahone Bay
M:6/8
L:1/8
Q:100
C:Robert Joudrey
S:(from the playing of Natalie MacMaster)
R:Jig
D:Natalie MacMaster, "A Compliation",1996, Warner Music Canada CD 1656
N:from The Scottish Music List, Vol2 No 67
Z:W. Armstrong, Jan-98
K:G
G,2B, D2G|B2B BAG|A,2B, C2E|
A2A cBA|D2F A2d|f2f gfe|ded cBA|
[1BGE D3:|[2 BGE G3 |:
gdB G2B|D3 D3|gdB G2B|A3 A2B |cBA DFA|f2f gfe|
[1 ded cBA|BGED2z:|[2 dcd fef| agf g3|]
